src/svg/it-behance.svg

<svg width="24px" height="24px" viewBox="0 0 24 24" version="1.1"
     xmlns="http://www.w3.org/2000/svg">
  <title>Logo Behance</title>
  <g stroke="none" stroke-width="1">
    <g>
      <rect x="0" y="0" width="24" height="24" fill="none"></rect>
      <path
        d="M7.83,5.75 C8.36701611,5.74617028 8.9030532,5.79642376 9.43,5.9 C9.87324254,5.98549102 10.2948699,6.15890227 10.67,6.41 C11.0146262,6.6433401 11.290783,6.96437244 11.47,7.34 C11.6720063,7.79587051 11.7677514,8.29169353 11.75,8.79 C11.7696729,9.33407785 11.6231731,9.87124381 11.33,10.33 C11.0097996,10.7686812 10.5782695,11.1139053 10.08,11.33 C10.7598284,11.4993747 11.3560968,11.9075346 11.76,12.48 C12.1531966,13.0707974 12.3492317,13.7709226 12.32,14.48 C12.3435565,15.028085 12.2337473,15.5736994 12,16.07 C11.7628166,16.5164632 11.4193799,16.8976779 11,17.18 C10.575958,17.4763839 10.1015845,17.6932403 9.6,17.82 C9.07717592,17.9516122 8.53899814,18.0121572 8,18 L2,18 L2,5.75 L7.83,5.75 Z M7.48,10.75 C7.90373518,10.7623968 8.32045021,10.6398335 8.67,10.4 C8.99825639,10.1294261 9.17064247,9.71345094 9.13,9.29 C9.15326737,9.03292226 9.10843086,8.77425005 9,8.54 C8.90021261,8.36225406 8.75534913,8.21394145 8.58,8.11 C8.40019053,8.00714773 8.20397666,7.93610478 8,7.9 C7.76950936,7.854842 7.53481345,7.83472521 7.3,7.84 L4.74,7.84 L4.74,10.71 L7.48,10.75 Z M7.63,15.97 C7.881757,15.9728843 8.13312504,15.9494233 8.38,15.9 C8.60246035,15.8366065 8.81223713,15.7351016 9,15.6 C9.18380011,15.4742705 9.33470176,15.306221 9.44,15.11 C9.55634791,14.8599021 9.61120656,14.5856088 9.6,14.31 C9.63525707,13.8189168 9.44802027,13.3379752 9.09,13 C8.67526323,12.7184674 8.18079095,12.5781916 7.68,12.6 L4.74,12.6 L4.74,15.98 L7.63,15.97 Z M16.17,15.89 C16.6041296,16.272555 17.1725392,16.4668216 17.75,16.43 C18.194134,16.4333189 18.6292295,16.3045306 19,16.06 C19.2972839,15.8748974 19.5256278,15.5973717 19.65,15.27 L21.8,15.27 C21.559476,16.1955948 20.999935,17.0065751 20.22,17.56 C19.4462063,18.0378759 18.549037,18.2778166 17.64,18.25 C16.9916865,18.2587241 16.3474028,18.1468222 15.74,17.92 C14.6415454,17.490017 13.7888904,16.5971079 13.41,15.48 C13.1882487,14.8749769 13.0797742,14.2342996 13.09,13.59 C13.0836819,12.9548985 13.1955862,12.3241652 13.42,11.73 C13.6198625,11.1725335 13.9369987,10.6644336 14.35,10.24 C14.7594571,9.81508337 15.2488258,9.47524401 15.79,9.24 C16.375126,8.99332403 17.0050703,8.87074027 17.64,8.88 C18.3323343,8.86385867 19.018364,9.01478521 19.64,9.32 C20.1771199,9.60486442 20.6422356,10.0084208 21,10.5 C21.3705311,11.0054264 21.6357762,11.580124 21.78,12.19 C21.9452753,12.8429484 22.0026992,13.5185237 21.95,14.19 L15.57,14.19 C15.5516147,14.8115664 15.7655353,15.4176748 16.17,15.89 Z M19,11.22 C18.6282504,10.8717119 18.12815,10.69414 17.62,10.73 C17.2749846,10.7091352 16.9304508,10.7780419 16.62,10.93 C16.3795881,11.0453903 16.1678184,11.2127567 16,11.42 C15.8459842,11.6000477 15.7333371,11.8116878 15.67,12.04 C15.6128144,12.2322818 15.5759462,12.4300295 15.56,12.63 L19.56,12.63 C19.5307046,12.1118122 19.3342169,11.6170842 19,11.22 Z M15.07,6.57 L20.05,6.57 L20.05,7.78 L15.07,7.78 L15.07,6.57 Z"
        ></path>
    </g>
  </g>
</svg>

<svg xmlns="http://www.w3.org/2000/svg" viewBox="0 0 24 24"><title>it-behance</title><g><path d="M7.83,5.75a8,8,0,0,1,1.6.15,3.38,3.38,0,0,1,1.24.51,2.34,2.34,0,0,1,.8.93,3.29,3.29,0,0,1,.28,1.45,2.68,2.68,0,0,1-.42,1.54,3.05,3.05,0,0,1-1.25,1,2.92,2.92,0,0,1,1.68,1.15,3.36,3.36,0,0,1,.56,2A3.39,3.39,0,0,1,12,16.07a3.08,3.08,0,0,1-1,1.11,4.27,4.27,0,0,1-1.4.64A6,6,0,0,1,8,18H2V5.75Zm-.35,5a2,2,0,0,0,1.19-.35,1.28,1.28,0,0,0,.46-1.11A1.47,1.47,0,0,0,9,8.54a1.16,1.16,0,0,0-.42-.43A1.8,1.8,0,0,0,8,7.9a3.26,3.26,0,0,0-.7-.06H4.74v2.87Zm.15,5.22a3.61,3.61,0,0,0,.75-.07A2,2,0,0,0,9,15.6a1.39,1.39,0,0,0,.44-.49,1.73,1.73,0,0,0,.16-.8A1.64,1.64,0,0,0,9.09,13a2.33,2.33,0,0,0-1.41-.4H4.74v3.38Z"/><path d="M16.17,15.89a2.18,2.18,0,0,0,1.58.54A2.24,2.24,0,0,0,19,16.06a1.6,1.6,0,0,0,.65-.79h2.15a4.06,4.06,0,0,1-1.58,2.29,4.64,4.64,0,0,1-2.58.69,5.23,5.23,0,0,1-1.9-.33,4,4,0,0,1-2.33-2.44,5.25,5.25,0,0,1-.32-1.89,5.12,5.12,0,0,1,.33-1.86,4.14,4.14,0,0,1,.93-1.49,4.48,4.48,0,0,1,1.44-1,4.59,4.59,0,0,1,1.85-.36,4.31,4.31,0,0,1,2,.44A4,4,0,0,1,21,10.5a4.68,4.68,0,0,1,.78,1.69,6.18,6.18,0,0,1,.17,2H15.57A2.5,2.5,0,0,0,16.17,15.89ZM19,11.22a1.83,1.83,0,0,0-1.38-.49,2,2,0,0,0-1,.2,1.8,1.8,0,0,0-.62.49,1.62,1.62,0,0,0-.33.62,2.87,2.87,0,0,0-.11.59h4A2.4,2.4,0,0,0,19,11.22Z"/><rect x="15.07" y="6.57" width="4.98" height="1.21"/></g></svg>
